images/d-cursor.svg

<svg fill="none" height="52" viewBox="0 0 53 52" width="53" xmlns="http://www.w3.org/2000/svg" xmlns:xlink="http://www.w3.org/1999/xlink"><filter id="a" color-interpolation-filters="sRGB" filterUnits="userSpaceOnUse" height="43.8188" width="37.5917" x="15.2075" y="7.28809"><feFlood flood-opacity="0" result="BackgroundImageFix"/><feColorMatrix in="SourceAlpha" result="hardAlpha" type="matrix" values="0 0 0 0 0 0 0 0 0 0 0 0 0 0 0 0 0 0 127 0"/><feOffset dy="2"/><feGaussianBlur stdDeviation="1"/><feComposite in2="hardAlpha" operator="out"/><feColorMatrix type="matrix" values="0 0 0 0 0 0 0 0 0 0 0 0 0 0 0 0 0 0 0.25 0"/><feBlend in2="BackgroundImageFix" mode="normal" result="effect1_dropShadow_498_5261"/><feBlend in="SourceGraphic" in2="effect1_dropShadow_498_5261" mode="normal" result="shape"/></filter><filter id="b" color-interpolation-filters="sRGB" filterUnits="userSpaceOnUse" height="45.9126" width="38.5903" x=".046921" y="2.05273"><feFlood flood-opacity="0" result="BackgroundImageFix"/><feColorMatrix in="SourceAlpha" result="hardAlpha" type="matrix" values="0 0 0 0 0 0 0 0 0 0 0 0 0 0 0 0 0 0 127 0"/><feOffset dy="2"/><feGaussianBlur stdDeviation="1"/><feComposite in2="hardAlpha" operator="out"/><feColorMatrix type="matrix" values="0 0 0 0 0 0 0 0 0 0 0 0 0 0 0 0 0 0 0.25 0"/><feBlend in2="BackgroundImageFix" mode="normal" result="effect1_dropShadow_498_5261"/><feBlend in="SourceGraphic" in2="effect1_dropShadow_498_5261" mode="normal" result="shape"/></filter><g filter="url(#a)"><path d="m23.6108 9.95552c-1.7532-1.36696-4.3091-.11747-4.3091 2.10388v30.2742c0 2.5311 3.1949 3.6417 4.7647 1.6553l7.4577-9.4334c.2752-.3477.6255-.6285 1.0247-.8215s.8369-.293 1.2803-.2927h12.1958c2.5416 0 3.6469-3.2181 1.6392-4.7773z" fill="#fff"/><path d="m33.8291 34.4884h-.0008c-.2853-.0002-.5669.0642-.8238.1883l-.4557-.9427.4557.9427c-.2567.1241-.4819.3047-.6589.5282zm0 0h12.1958m-12.1958 0h12.1958m0 0c3.5365 0 5.0785-4.4784 2.2821-6.6509zm-21.137 10.1498 7.4573-9.4329 15.9612-7.3683-24.0518-18.70724c-.0002-.00016-.0004-.00031-.0006-.00047-2.441-1.90253-5.9994-.16259-5.9994 2.93011v30.2742c0 3.5237 4.4476 5.0701 6.6332 2.3047.0001 0 .0001-.0001.0001-.0001z" stroke="#fff" stroke-width="2.0942"/></g><path d="m33.8299 32.3942c-.6015-.0005-1.1953.1353-1.7368.3971-.5415.2617-1.0167.6427-1.39 1.1144l-.0004.0004-7.4577 9.4335-.0001.0001c-.9541 1.2072-2.8961.5322-2.8961-1.0061v-30.2742c0-1.3498 1.5528-2.10875 2.6181-1.2781l.001.0007 24.0534 18.7086.0006.0004c1.2182.9461.5495 2.9032-.997 2.9032zm0 0-.0008 1.0471m.0008-1.0471h-.0008v1.0471m0 0h12.1958c2.5416 0 3.6469-3.2181 1.6392-4.7773l-16.14 5.8915c.2752-.3477.6255-.6285 1.0247-.8215s.8369-.293 1.2803-.2927z" fill="#fff" stroke="#666" stroke-width="2.0942"/><g filter="url(#b)"><path d="m7.11697 2.72255c-2.06278-1.60834-5.07005-.13822-5.07005 2.47534v35.62021c0 2.9779 3.75909 4.2847 5.60617 1.9476l8.77471-11.0992c.3237-.4091.7359-.7396 1.2056-.9666s.9847-.3448 1.5064-.3444h14.3494c2.9905 0 4.291-3.7863 1.9288-5.6208z" fill="#ff512f"/><path d="m19.1405 29.3084c-.6797-.0005-1.3508.1529-1.9628.4488-.612.2958-1.1491.7264-1.571 1.2594l-.0003.0005-8.77473 11.0992-.00009.0001c-1.23133 1.558-3.73756.6869-3.73756-1.2983v-35.62021c0-1.74194 2.00418-2.72161 3.37911-1.64958l.00098.00077 28.30099 22.01212.0006.0005c1.5728 1.2214.7089 3.7467-1.2865 3.7467zm0 0-.0007 1.0471m.0007-1.0471h-.0007v1.0471m0 0h14.3494c2.9905 0 4.291-3.7863 1.9288-5.6208l-28.30103-22.01215c-2.06278-1.60834-5.07005-.13822-5.07005 2.47534v35.62021c0 2.9779 3.75909 4.2847 5.60617 1.9476l8.77471-11.0992c.3237-.4091.7359-.7396 1.2056-.9666s.9847-.3448 1.5064-.3444z" stroke="#fff" stroke-width="2.0942"/></g></svg>

<svg width="53" height="52" viewBox="0 0 53 52" fill="none" xmlns="http://www.w3.org/2000/svg">
<g filter="url(#filter0_d_498_5261)">
<path d="M23.6108 9.95552C21.8576 8.58856 19.3017 9.83805 19.3017 12.0594V42.3336C19.3017 44.8647 22.4966 45.9753 24.0664 43.9889L31.5241 34.5555C31.7993 34.2078 32.1496 33.927 32.5488 33.734C32.948 33.541 33.3857 33.441 33.8291 33.4413H46.0249C48.5665 33.4413 49.6718 30.2232 47.6641 28.664L23.6108 9.95552Z" fill="white"/>
<path d="M33.8291 34.4884H33.8283C33.543 34.4882 33.2614 34.5526 33.0045 34.6767C32.7478 34.8008 32.5226 34.9814 32.3456 35.2049L33.8291 34.4884ZM33.8291 34.4884H46.0249C49.5614 34.4884 51.1034 30.01 48.307 27.8375L47.6641 28.664C49.6718 30.2232 48.5665 33.4413 46.0249 33.4413H33.8291V34.4884ZM24.8879 44.6382L32.3452 35.2053L48.3064 27.837L24.2546 9.12976C24.2544 9.1296 24.2542 9.12945 24.254 9.12929C21.813 7.22676 18.2546 8.9667 18.2546 12.0594V42.3336C18.2546 45.8574 22.7023 47.4037 24.8879 44.6382Z" stroke="white" stroke-width="2.0942"/>
</g>
<path d="M33.8299 32.3942C33.2284 32.3937 32.6346 32.5295 32.0931 32.7913C31.5516 33.053 31.0764 33.434 30.7031 33.9057L30.7027 33.9061L23.245 43.3396L23.2449 43.3397C22.2908 44.5469 20.3488 43.8719 20.3488 42.3336V12.0594C20.3488 10.7096 21.9016 9.95065 22.9669 10.7813L22.9679 10.782L47.0213 29.4906L47.0219 29.491C48.2401 30.4371 47.5714 32.3942 46.0249 32.3942H33.8299ZM33.8299 32.3942L33.8291 33.4413M33.8299 32.3942H33.8291V33.4413M33.8291 33.4413H46.0249C48.5665 33.4413 49.6718 30.2232 47.6641 28.664L23.6108 9.95552C21.8576 8.58856 19.3017 9.83805 19.3017 12.0594V42.3336C19.3017 44.8647 22.4966 45.9753 24.0664 43.9889L31.5241 34.5555C31.7993 34.2078 32.1496 33.927 32.5488 33.734C32.948 33.541 33.3857 33.441 33.8291 33.4413Z" fill="white" stroke="#666666" stroke-width="2.0942"/>
<g filter="url(#filter1_d_498_5261)">
<path d="M7.11697 2.72255C5.05419 1.11421 2.04692 2.58433 2.04692 5.19789V40.8181C2.04692 43.796 5.806 45.1028 7.65309 42.7657L16.4278 31.6665C16.7515 31.2574 17.1637 30.9269 17.6334 30.6999C18.1031 30.4729 18.6181 30.3551 19.1398 30.3555H33.4892C36.4797 30.3555 37.7802 26.5692 35.418 24.7347L7.11697 2.72255Z" fill="#FF512F"/>
<path d="M19.1405 29.3084C18.4608 29.3079 17.7897 29.4613 17.1777 29.7572C16.5657 30.053 16.0286 30.4836 15.6067 31.0166L15.6064 31.0171L6.83167 42.1163L6.83158 42.1164C5.60025 43.6744 3.09402 42.8033 3.09402 40.8181V5.19789C3.09402 3.45595 5.0982 2.47628 6.47313 3.54831L6.47411 3.54908L34.7751 25.5612L34.7757 25.5617C36.3484 26.7831 35.4846 29.3084 33.4892 29.3084H19.1405ZM19.1405 29.3084L19.1398 30.3542V29.3084H19.1405Z" stroke="white" stroke-width="2.0942"/>
</g>
<defs>
<filter id="filter0_d_498_5261" x="15.2075" y="7.28809" width="37.5917" height="43.8188" filterUnits="userSpaceOnUse" color-interpolation-filters="sRGB">
<feFlood flood-opacity="0" result="BackgroundImageFix"/>
<feColorMatrix in="SourceAlpha" type="matrix" values="0 0 0 0 0 0 0 0 0 0 0 0 0 0 0 0 0 0 127 0" result="hardAlpha"/>
<feOffset dy="2"/>
<feGaussianBlur stdDeviation="1"/>
<feComposite in2="hardAlpha" operator="out"/>
<feColorMatrix type="matrix" values="0 0 0 0 0 0 0 0 0 0 0 0 0 0 0 0 0 0 0.25 0"/>
<feBlend mode="normal" in2="BackgroundImageFix" result="effect1_dropShadow_498_5261"/>
<feBlend mode="normal" in="SourceGraphic" in2="effect1_dropShadow_498_5261" result="shape"/>
</filter>
<filter id="filter1_d_498_5261" x="0.0469208" y="2.05273" width="38.5903" height="45.9126" filterUnits="userSpaceOnUse" color-interpolation-filters="sRGB">
<feFlood flood-opacity="0" result="BackgroundImageFix"/>
<feColorMatrix in="SourceAlpha" type="matrix" values="0 0 0 0 0 0 0 0 0 0 0 0 0 0 0 0 0 0 127 0" result="hardAlpha"/>
<feOffset dy="2"/>
<feGaussianBlur stdDeviation="1"/>
<feComposite in2="hardAlpha" operator="out"/>
<feColorMatrix type="matrix" values="0 0 0 0 0 0 0 0 0 0 0 0 0 0 0 0 0 0 0.25 0"/>
<feBlend mode="normal" in2="BackgroundImageFix" result="effect1_dropShadow_498_5261"/>
<feBlend mode="normal" in="SourceGraphic" in2="effect1_dropShadow_498_5261" result="shape"/>
</filter>
</defs>
</svg>
